archdroid-icon-theme/Archdroid-Lime/places/scalable/folder-home.svg

<svg fill="#CDDC39" height="48" viewBox="0 0 48 48" width="48" xmlns="http://www.w3.org/2000/svg"><path d="m8 8c-2.21 0-3.980469 1.79-3.980469 4l-.019531 24c0 2.21 1.79 4 4 4h32c2.21 0 4-1.79 4-4v-20c0-2.21-1.79-4-4-4h-16l-4-4zm20.117188 9 11.765624 10.587891h-3.529296v9.412109h-5.882813v-7.058594h-4.705078v7.058594h-5.882813v-9.412109h-3.529296z" fill="#CDDC39"/></svg>

<svg fill="#CDDC39" height="48" version="1.1" viewBox="0 0 48 48" width="48" xmlns="http://www.w3.org/2000/svg"><path d="M8 8C5.79 8 4.019531 9.79 4.019531 12L4 36C4 38.21 5.79 40 8 40L40 40C42.21 40 44 38.21 44 36L44 16C44 13.79 42.21 12 40 12L24 12 20 8 8 8zM28.117188 17L39.882812 27.587891 36.353516 27.587891 36.353516 37 30.470703 37 30.470703 29.941406 25.765625 29.941406 25.765625 37 19.882812 37 19.882812 27.587891 16.353516 27.587891 28.117188 17z"/></svg>
